X: 39870
T: This Is My Love, Do You Like Her?
R: jig
M: 6/8
K: Eminor
|:"Em" EFE EDB,|"G" G3 G2A|"Em" BcB BAG|"Bm" dBA B2e|
"G" dBG GAB|"D" AFD DEF|"Em" GFE "D" FED|"Em" GED E3:|
|:"Em" efe edB|"D" ded dBd|"Em" efe edB|"Bm" d3 B2e|
"G" dBG GAB|"D" AFD DEF|"Em" GFE "D" FED|"Em" GED E3:|

